X:1
T: The Humors of Ballinacarrig
C:
R:Reel
Q: 232
K:Em
M:4/4
L:1/8
|:BE ((3EDE) d2 cB|AD ((3FED) FA Ac|BE EF GA B^c|d^c dB e2 dc|
BE ((3EDE) d2 cB|AD ((3FED) FA Ac|BE EF GA B^c|dB Ac BE E2|
e^d ef gf ge|de fg af df|ed ef gf e^c|dB Ac BE E2|
e^d ef gf ge|de fg af df|g2 fd ((3efg) fe|dB Ac BE E2:|
